X:1
T:Title
%%score { ( 1 4 ) | ( 2 3 ) }
L:1/8
Q:1/4=100
M:4/4
K:C
V:1 treble nm="Grand Piano"
V:4 treble 
V:2 bass 
V:3 bass 
V:1
 .[G,EG]2 .[_EB]2 [G,=EG]2 [CE]F | .[G,EG]2 .[B,_E^F]2 [G,=EG]4 | [FA][Ac][GB][FA] [EG]2 G2 | %3
w: J.~H.~Tenney * * * *|||
 ^FA[B,DG][CF] [G,B,G]4 | [DB]d[Ec]B [Ec]2 [CEG]2 | G-[FG]G-[DG] [EG]4 | G2 z2 z2 c2 | %7
w: ||||
 [EGc][FB][CEc][Fd] [CEc]4 |] %8
w: |
V:2
 z c z A C,2 z D | z C z A, C,4 | [F,C]2 [F,C]2 [C,C]2 [E,G,C]2 | [D,D]-[D,CD] z A, G,,4 | %4
 z[K:treble] F z D[K:bass] [C,G,]2 C,E, | z D z B, [C,C]4 | [C,C][D,B,]C-[F,CF] [C,C]2 [C,G,]E, | %7
 z D z B, C,4 |] %8
V:3
 C,2 [C,^F,]2 z2 [C,G,]2 | C,2 C,2 z4 | x8 | .A,2 D,2 z4 | G,2[K:treble] G,2[K:bass] z4 | %5
 G,2 G,,2 z4 | z2 .E,2 z4 | G,2 G,,2 z4 |] %8
V:4
 x8 | x8 | x8 | x8 | x8 | .[B,D]2 .[CE]2 z4 | ed[Gc]A [EG]2 E[CG] | x8 |] %8

